!!!OTL: ES WAREN LUSTIGE GESELLEN
!!!ARE: Europa, Mitteleuropa, Deutschland
!!!SCT: E1305C
!!!YEM: Copyright 1995, estate of Helmut Schaffrath.
**kern
*ICvox
*Ivox
*M2/4
*k[f#]
*G:
{8d
=1
4g
8f#
8e
=2
8.d
16g
8g
8b
=3
4a
8g
8r
=4
4a
8g}
{8d
=5
4g
8f#
8e
=6
8.d
16g
8g
8b
=7
4a
8g
8r
=8
4a
8g}
{8dd
=9
8b
8b
8b
8b
=10
4b
8b}
{8dd
=11
8ee
8dd
8cc
8b
=12
4a
8r}
{8g
=13
8f#
8a
8a
8a
=14
4.dd}
{8cc
=15
8b
8b
8a
8a
=16
4g
8r}
==
!!!AGN: Staende -, Soldaten - Lied, Reiter
!!!ONB: ESAC (Essen Associative Code) Database: ERK3
!!!AMT: simple duple
!!!AIN: vox
!!!EED: Helmut Schaffrath
!!!EEV: 1.0
*-
